icons/file-code-24.svg

<svg xmlns="http://www.w3.org/2000/svg" width="24" height="24" viewBox="0 0 24 24"><path d="M3 3a2 2 0 012-2h9.982a2 2 0 011.414.586l4.018 4.018A2 2 0 0121 7.018V21a2 2 0 01-2 2H4.75a.75.75 0 010-1.5H19a.5.5 0 00.5-.5V8.5h-4a2 2 0 01-2-2v-4H5a.5.5 0 00-.5.5v6.25a.75.75 0 01-1.5 0zm12-.5v4a.5.5 0 00.5.5h4a.5.5 0 00-.146-.336l-4.018-4.018A.5.5 0 0015 2.5z"/><path d="M4.53 12.24a.75.75 0 01-.039 1.06l-2.639 2.45 2.64 2.45a.75.75 0 11-1.022 1.1l-3.23-3a.75.75 0 010-1.1l3.23-3a.75.75 0 011.06.04zm3.979 1.06a.75.75 0 111.02-1.1l3.231 3a.75.75 0 010 1.1l-3.23 3a.75.75 0 11-1.021-1.1l2.639-2.45-2.64-2.45z"/></svg>

<svg xmlns="http://www.w3.org/2000/svg" width="24" height="24" viewBox="0 0 24 24">
  <defs/>
  <path d="M3,3 C3,1.895 3.895,1 5,1 L14.982,1 C15.512,1 16.021,1.211 16.396,1.586 L20.414,5.604 C20.789,5.979 21,6.488 21,7.018 L21,21 C21,22.105 20.105,23 19,23 L4.75,23 C4.336,23 4,22.664 4,22.25 C4,21.836 4.336,21.5 4.75,21.5 L19,21.5 C19.276,21.5 19.5,21.276 19.5,21 L19.5,8.5 L15.5,8.5 C14.395,8.5 13.5,7.605 13.5,6.5 L13.5,2.5 L5,2.5 C4.724,2.5 4.5,2.724 4.5,3 L4.5,9.25 C4.5,9.664 4.164,10 3.75,10 C3.336,10 3,9.664 3,9.25 Z M15,2.5 L15,6.5 C15,6.776 15.224,7 15.5,7 L19.5,7 C19.496,6.874 19.443,6.753 19.354,6.664 L15.336,2.646 C15.247,2.557 15.126,2.504 15,2.5 Z"/>
  <path d="M4.53,12.24 A0.75 0.75 0 0 1 4.491,13.3 L1.852,15.75 L4.492,18.2 A0.75 0.75 0 1 1 3.47,19.3 L0.24,16.3 A0.75 0.75 0 0 1 0.24,15.2 L3.47,12.2 A0.75 0.75 0 0 1 4.53,12.24 Z M8.509,13.3 A0.75 0.75 0 1 1 9.529,12.2 L12.76,15.2 A0.75 0.75 0 0 1 12.76,16.3 L9.53,19.3 A0.75 0.75 0 1 1 8.509,18.2 L11.148,15.75 L8.508,13.3 Z"/>
</svg>
